app/dist/common/images/bendigo-and-adelaide-bank-limited.svg

<svg height="18" viewBox="0 0 18 18" width="18" xmlns="http://www.w3.org/2000/svg"><path d="m0 0h18v18h-18z" fill="#a90533"/><path d="m6 11.11 3-2.11-3-2.1v1.07l1.5 1.03-1.5 1.03zm0 3.89 8.5-6-8.5-6v1.15l7 4.83-7 4.87zm0-1.9 5.82-4.1-5.82-4.1v1.1l4.32 3-4.32 3z" fill="#f0f3fa"/></svg>

<!-- by TradingView --><svg xmlns="http://www.w3.org/2000/svg" width="18" height="18" viewBox="0 0 18 18"><path fill="#A90533" d="M0 0h18v18H0z"/><path d="M6 11.11 9 9 6 6.9v1.07l1.5 1.03L6 10.03v1.08ZM6 15l8.5-6L6 3v1.15l7 4.83-7 4.87V15Zm0-1.9L11.82 9 6 4.9V6l4.32 3L6 12v1.1Z" fill="#F0F3FA"/></svg>
